X:188
T: Die beiden Waisenkinder
N: Q1118A
O: Mitteleuropa, Deutschland (BRD) , Westfalen
N: Melodievergleich zu Q0118 ff., anderes Lied.
R: Ballade
M: 6/8
L: 1/8
K: G
D | GGGGFG | AA2z2
A | AAdddc | B3
d3 | BcdBcd | e3ed
c | dddd2c | B3
d3 | BcdBcd | e3ed
c | dddd2c | B3z2

@@@ Tune index: 1481
